coreui/free/cil-text-shapes.svg

<svg xmlns="http://www.w3.org/2000/svg" viewBox="0 0 512 512">
  <path fill="var(--ci-primary-color, currentColor)" d="M231.359,147,150.438,352h45.155l15.593-39.5h89.628L316.407,352h45.155L280.641,147Zm-3.594,123.5L256,198.967,284.235,270.5Z" class="ci-primary"/>
  <path fill="var(--ci-primary-color, currentColor)" d="M384,56H128V16H16V128H56V384H16V496H128V456H384v40H496V384H456V128h40V16H384ZM48,96V48H96V96ZM96,464H48V416H96Zm288-40H128V384H88V128h40V88H384v40h40V384H384Zm80-8v48H416V416ZM416,48h48V96H416Z" class="ci-primary"/>
</svg>

<svg viewBox="0 0 512 512" xmlns="http://www.w3.org/2000/svg"><g><path d="M231.35 147l-80.93 205h45.155l15.59-39.5h89.62l15.59 39.5h45.15l-80.93-205Zm-3.6 123.5l28.23-71.54 28.23 71.53Z"/><path d="M384 56H128V16H16v112h40v256H16v112h112v-40h256v40h112V384h-40V128h40V16H384ZM48 96V48h48v48Zm48 368H48v-48h48Zm288-40H128v-40H88V128h40V88h256v40h40v256h-40Zm80-8v48h-48v-48ZM416 48h48v48h-48Z"/></g></svg>
